X:1
T:Title
L:1/8
Q:1/4=80
M:6/8
K:G
V:1 treble nm="Church Organ, Staff"
V:1
 D B2 Gc>B | Ad>e d B2 | G e2 dd>c | B A2 EGF | D B2 Gc>B | A d2 B A2 | d e2 GFA | ddf eed | %8
w: By~C.~E.~F.~Weyse * * * *||||||||
 D F2 GBA | ^G A2 Bdc | B B2 BBc | B B2 ced | c B2- B/ z/ A2- | A d2- d d2 | G B2- B/ z/ A2- | %15
w: |||||||
 A G2- G G2 |] %16
w: |

